X: 12841
T: Female Sailor, The
R: jig
M: 6/8
K: Gdorian
D|:"Gm" G2d d2c|B3 c3|d2c B2A|"D7" B2A G2^F|
"Gm" G2d d2c|"Cm" B3 c3|"D7" d2c B2A|"Gm" G6:|
|:"Gm" b2a g2^f|g3 d3|"Eb" b2a "Dm" g2^f|g3 d2f|"Cm" e2c "Dm" d2A|
"Gm" B3 B2c|1 "D7" d3 e2^f|g3 a3:|2 "D7" d3 A2A|"Gm" G6||

